images/favicon.svg

<svg height="32" viewBox="0 0 32 32" width="32" xmlns="http://www.w3.org/2000/svg"><path d="m19.1611791 15.4803629 1.0302757-1.3178958c.0976664-.1249317.2474129-.1979408.40599-.1979408.1570961 0 .303932.078032.3918371.2082315l10.0107181 14.8272422-30-.005247 9.1494992-13.5547683c.6227138-.9225358 1.6630358-1.4754584 2.7760697-1.4754584 1.1386664 0 2.2295363.4577266 3.0272747 1.270238l1.4660327 1.4931814c-.9387688 1.2886033-1.7269036 2.4037581-1.8555813 3.0858671 0 .3034033 1.1992947-1.14108 3.5978841-4.3334499zm-3.1643036-5.92664905c-1.5062311 0-2.7272727-1.24324119-2.7272727-2.77685693 0-1.53361573 1.2210416-2.77685692 2.7272727-2.77685692 1.5062312 0 2.7272728 1.24324119 2.7272728 2.77685692 0 1.53361574-1.2210416 2.77685693-2.7272728 2.77685693z" fill="#df1659" fill-rule="evenodd"/></svg>

<svg xmlns="http://www.w3.org/2000/svg" width="32" height="32" viewBox="0 0 32 32">
  <path fill="#DF1659" fill-rule="evenodd" d="M19.1611791,15.4803629 L20.1914548,14.1624671 C20.2891212,14.0375354 20.4388677,13.9645263 20.5974448,13.9645263 C20.7545409,13.9645263 20.9013768,14.0425583 20.9892819,14.1727578 L31,29 L1,28.994753 L10.1494992,15.4399847 C10.772213,14.5174489 11.812535,13.9645263 12.9255689,13.9645263 C14.0642353,13.9645263 15.1551052,14.4222529 15.9528436,15.2347643 L17.4188763,16.7279457 C16.4801075,18.016549 15.6919727,19.1317038 15.563295,19.8138128 C15.563295,20.1172161 16.7625897,18.6727328 19.1611791,15.4803629 Z M15.9968755,9.55371385 C14.4906444,9.55371385 13.2696028,8.31047266 13.2696028,6.77685692 C13.2696028,5.24324119 14.4906444,4 15.9968755,4 C17.5031067,4 18.7241483,5.24324119 18.7241483,6.77685692 C18.7241483,8.31047266 17.5031067,9.55371385 15.9968755,9.55371385 Z"/>
</svg>
